assets/svg/1F1EC-1F1E7.svg

<svg xmlns="http://www.w3.org/2000/svg" viewBox="0 0 64 64" enable-background="new 0 0 64 64"><path fill="#1b75bb" d="m57.1 12.85h-50.21c-3.813 0-6.897 3.695-6.897 8.249v5.599 13.85 5.599c0 4.555 3.083 8.25 6.897 8.25h50.22c3.807 0 6.896-3.695 6.896-8.25v-5.599-13.85-5.599c0-4.555-3.086-8.249-6.899-8.249"/><path fill="#176496" d="M6.892,12.854c-3.814,0-6.897,3.686-6.897,8.23v5.586l0,0v13.818l0,0v5.586c0,4.545,3.083,8.23,6.897,8.23   H19.11V40.489l0,0v-13.82l0,0V12.854H6.892z"/><path fill="#fff" d="m46.684 29.06l17.317-.002v-1.916l-14.326-.0001 13.896-8.92c-.51-1.707-1.482-3.23-2.799-4.106l1.58 2.467-16.534 10.559h-6.93l21.11-13.547c-.756-.443-1.635-.659-2.518-.741l-18.685 11.954v-11.95h-13.605v11.769l-18.391-11.773c-.932.004-1.871.208-2.691.636l21.08 13.527v.125l-6.812-.0001-16.739-10.743 1.429-2.232c-1.175.927-2.107 2.309-2.598 3.877l14.174 9.1h-14.658v2.01l17.7-.054 7.213 4.63-6.974 4.475-17.939-.005v1.922l14.947.002-14.403 9.24c.497 1.34 1.219 2.533 2.198 3.386l-1.091-1.699 17.03-10.929h6.526v.195l-21.02 13.423c.677.406 1.533.668 2.385.668l.656-.002 17.978-11.543v11.545h2.02v-12.834l4.953-3.184 4.619 2.969v13.05h2.02v-11.761l18.31 11.758h.078c1.133 0 1.797-.193 2.633-.666l-21.02-13.49v-.13h6.818l16.737 10.74-1.315 2.066c1.026-.764 2.067-2.16 2.476-3.709l-14.179-9.1 14.666.004v-1.907l-17.646-.015-6.957-4.461 7.286-4.674m-3.873 0l-5.363 3.428-3.441-2.211 2.777-1.785v.568h6.03v0m-7.23 4.617l-3.515 2.244-3.428-2.201 3.505-2.249 3.438 2.206m-8.371-20.671h9.572v13.09l-4.645 2.98-4.928-3.162.0001-12.91 0 0m-5.809 16.07l5.807-.019v-.751l3.064 1.968-3.505 2.248-5.366-3.446m5.809 9.944v-.824h-5.551l5.108-3.278 3.423 2.201-2.98 1.901m15.422-.821l-5.85-.004v.753l-2.753-1.771 3.507-2.247 5.096 3.269"/><path fill="#ec1c24" d="m64.01 28.833l-20.729.003 19.488-12.51c-.678-1.244-1.662-2.115-2.766-2.736l-23.21 14.883v-15.619h-9.574v15.431l-23.11-14.799c-1.242.631-2.094 1.539-2.8 2.722l19.725 12.649-21.04.071v9.482l21.299.004-19.883 12.757c.73 1.226 1.74 2.111 2.92 2.652l22.888-14.683v15.26h9.573v-15.436l23.02 14.769c.854-.426 1.972-1.146 2.902-2.699l-19.686-12.614 20.978.012v-9.599h-.003"/><path fill="#c32129" d="m18.859 28.86v9.55h-18.859l-.011-9.487z"/></svg>

<?xml version="1.0" encoding="UTF-8" standalone="no"?>
<!-- Generator: Adobe Illustrator 16.0.0, SVG Export Plug-In . SVG Version: 6.00 Build 0)  -->

<svg
   xmlns:dc="http://purl.org/dc/elements/1.1/"
   xmlns:cc="http://creativecommons.org/ns#"
   xmlns:rdf="http://www.w3.org/1999/02/22-rdf-syntax-ns#"
   xmlns:svg="http://www.w3.org/2000/svg"
   xmlns="http://www.w3.org/2000/svg"
   xmlns:sodipodi="http://sodipodi.sourceforge.net/DTD/sodipodi-0.dtd"
   xmlns:inkscape="http://www.inkscape.org/namespaces/inkscape"
   version="1.1"
   id="Layer_1"
   x="0px"
   y="0px"
   width="64px"
   height="64px"
   viewBox="0 0 64 64"
   enable-background="new 0 0 64 64"
   xml:space="preserve"
   inkscape:version="0.48.5 r10040"
   sodipodi:docname="1F1EC-1F1E7.svg"
   inkscape:export-filename="D:\TESTINGEMOJI\SVGTEST\1F1EC-1F1E7.png"
   inkscape:export-xdpi="90"
   inkscape:export-ydpi="90"><metadata
   id="metadata3451"><rdf:RDF><cc:Work
       rdf:about=""><dc:format>image/svg+xml</dc:format><dc:type
         rdf:resource="http://purl.org/dc/dcmitype/StillImage" /><dc:title></dc:title></cc:Work></rdf:RDF></metadata><defs
   id="defs3449" /><sodipodi:namedview
   pagecolor="#ffffff"
   bordercolor="#666666"
   borderopacity="1"
   objecttolerance="10"
   gridtolerance="10"
   guidetolerance="10"
   inkscape:pageopacity="0"
   inkscape:pageshadow="2"
   inkscape:window-width="640"
   inkscape:window-height="480"
   id="namedview3447"
   showgrid="false"
   inkscape:zoom="3.6875"
   inkscape:cx="32"
   inkscape:cy="32"
   inkscape:window-x="758"
   inkscape:window-y="419"
   inkscape:window-maximized="0"
   inkscape:current-layer="Layer_1" />
<g
   id="g3433">
	<g
   id="g3435">
		<path
   fill="#1B75BB"
   d="M57.104,12.85H6.892c-3.813,0-6.897,3.695-6.897,8.249v5.599v13.85v5.599c0,4.555,3.083,8.25,6.897,8.25    h50.215c3.807,0,6.896-3.695,6.896-8.25v-5.599v-13.85v-5.599C64.003,16.544,60.917,12.85,57.104,12.85z"
   id="path3437" />
	</g>
	<path
   fill="#176496"
   d="M6.892,12.854c-3.814,0-6.897,3.686-6.897,8.23v5.586l0,0v13.818l0,0v5.586c0,4.545,3.083,8.23,6.897,8.23   H19.11V40.489l0,0v-13.82l0,0V12.854H6.892z"
   id="path3439" />
	<path
   fill="#FFFFFF"
   d="M46.684,29.057l17.317-0.002v-1.916l-14.326-0.001l13.896-8.92c-0.51-1.707-1.482-3.23-2.799-4.106   l1.58,2.467L45.818,27.138h-6.93l21.113-13.547c-0.756-0.443-1.635-0.659-2.518-0.741L38.798,24.804v-11.95H25.193v11.769   L6.802,12.85c-0.932,0.004-1.871,0.208-2.691,0.636l21.083,13.527v0.125l-6.812-0.001L1.643,16.394l1.429-2.232   c-1.175,0.927-2.107,2.309-2.598,3.877l14.174,9.096L-0.01,27.134v2.009l17.7-0.054l7.213,4.63l-6.974,4.475L-0.01,38.189v1.922   l14.947,0.002l-14.403,9.24c0.497,1.34,1.219,2.533,2.198,3.386L1.641,51.04l17.026-10.929h6.526v0.195L4.175,53.729   c0.677,0.406,1.533,0.668,2.385,0.668l0.656-0.002l17.978-11.543v11.545h2.017V41.563l4.953-3.184l4.619,2.969V54.4H38.8V42.639   l18.31,11.758h0.078c1.133,0,1.797-0.193,2.633-0.666L38.798,40.241v-0.13h6.818l16.737,10.74l-1.315,2.066   c1.026-0.764,2.067-2.16,2.476-3.709l-14.179-9.098l14.666,0.004v-1.907l-17.646-0.015l-6.957-4.461L46.684,29.057z M42.811,29.057   l-5.363,3.428l-3.441-2.211l2.777-1.785v0.568H42.811L42.811,29.057z M35.581,33.674l-3.515,2.244l-3.428-2.201l3.505-2.249   L35.581,33.674z M27.21,13.003h9.572v13.092l-4.645,2.98l-4.928-3.162L27.21,13.003L27.21,13.003z M21.401,29.076l5.807-0.019   v-0.751l3.064,1.968l-3.505,2.248L21.401,29.076z M27.21,39.02v-0.824h-5.551l5.108-3.278l3.423,2.201L27.21,39.02z M42.632,38.199   l-5.85-0.004v0.753l-2.753-1.771l3.507-2.247L42.632,38.199z"
   id="path3441" />
	<path
   fill="#EC1C24"
   d="M64.009,28.833l-20.729,0.003l19.488-12.51c-0.678-1.244-1.662-2.115-2.766-2.736L36.796,28.473V12.854   h-9.574v15.431L4.11,13.486c-1.242,0.631-2.094,1.539-2.8,2.722l19.725,12.649l-21.036,0.071v9.482l21.299,0.004L1.415,51.171   c0.73,1.226,1.74,2.111,2.92,2.652l22.888-14.683V54.4h9.573V38.964l23.022,14.769c0.854-0.426,1.972-1.146,2.902-2.699   L43.034,38.42l20.978,0.012v-9.599H64.009z"
   id="path3443" />
	<polygon
   fill="#C32129"
   points="18.859,28.86 18.859,38.412 -0.001,38.412 -0.011,28.923  "
   id="polygon3445" />
</g>
</svg>
